usr/share/arcologout/themes/red/restart.svg

<?xml version="1.0" encoding="UTF-8" standalone="no"?>
<svg
   xmlns:dc="http://purl.org/dc/elements/1.1/"
   xmlns:cc="http://creativecommons.org/ns#"
   xmlns:rdf="http://www.w3.org/1999/02/22-rdf-syntax-ns#"
   xmlns:svg="http://www.w3.org/2000/svg"
   xmlns="http://www.w3.org/2000/svg"
   xmlns:sodipodi="http://sodipodi.sourceforge.net/DTD/sodipodi-0.dtd"
   xmlns:inkscape="http://www.inkscape.org/namespaces/inkscape"
   width="24px"
   height="24px"
   viewBox="0 0 24 24"
   version="1.1"
   id="svg12"
   sodipodi:docname="restart.svg"
   inkscape:version="0.92.4 5da689c313, 2019-01-14">
  <metadata
     id="metadata16">
    <rdf:RDF>
      <cc:Work
         rdf:about="">
        <dc:format>image/svg+xml</dc:format>
        <dc:type
           rdf:resource="http://purl.org/dc/dcmitype/StillImage" />
        <dc:title>view-refresh</dc:title>
      </cc:Work>
    </rdf:RDF>
  </metadata>
  <sodipodi:namedview
     pagecolor="#ffffff"
     bordercolor="#666666"
     borderopacity="1"
     objecttolerance="10"
     gridtolerance="10"
     guidetolerance="10"
     inkscape:pageopacity="0"
     inkscape:pageshadow="2"
     inkscape:window-width="1920"
     inkscape:window-height="1080"
     id="namedview14"
     showgrid="false"
     inkscape:pagecheckerboard="true"
     inkscape:zoom="9.8333333"
     inkscape:cx="-7.8305085"
     inkscape:cy="12"
     inkscape:window-x="0"
     inkscape:window-y="0"
     inkscape:window-maximized="0"
     inkscape:current-layer="svg12" />
  <!-- Generator: Sketch 51.3 (57544) - http://www.bohemiancoding.com/sketch -->
  <title
     id="title2">view-refresh</title>
  <desc
     id="desc4">Created with Sketch.</desc>
  <defs
     id="defs6" />
  <g
     id="view-refresh"
     style="fill:#ffffff"
     stroke-width="1"
     stroke="none"
     fill-rule="evenodd"
     fill="none">
    <g
       id="21"
       transform="translate(5.000000, 5.000000)"
       style="fill:#ffffff"
       fill="#DDDDDD">
      <path
         d="M12.4885979,4 L12.1973068,4 C11.1598786,2.20659589 9.22084707,1 7,1 C3.6862915,1 1,3.6862915 1,7 C1,10.3137085 3.6862915,13 7,13 C9.61243765,13 11.8349158,11.3303847 12.6585886,9 L13.7101213,9 C12.8495721,11.8914889 10.1710206,14 7,14 C3.13400675,14 0,10.8659932 0,7 C0,3.13400675 3.13400675,0 7,0 C8.97567015,0 10.7601747,0.81847727 12.0329334,2.1348516 L12.4885979,4 Z"
         id="Combined-Shape"
         style="fill:#ffffff" />
      <polygon
         id="Triangle"
         transform="translate(12.750000, 3.750000) rotate(-225.000000) translate(-12.750000, -3.750000) "
         points="12.75 1.98223305 16.2855339 5.51776695 9.21446609 5.51776695"
         style="fill:#ffffff" />
    </g>
  </g>
</svg>

<?xml version="1.0" encoding="UTF-8"?>
<svg width="24px" height="24px" version="1.1" viewBox="0 0 24 24" xmlns="http://www.w3.org/2000/svg" xmlns:cc="http://creativecommons.org/ns#" xmlns:dc="http://purl.org/dc/elements/1.1/" xmlns:rdf="http://www.w3.org/1999/02/22-rdf-syntax-ns#">
 <metadata>
  <rdf:RDF>
   <cc:Work rdf:about="">
    <dc:format>image/svg+xml</dc:format>
    <dc:type rdf:resource="http://purl.org/dc/dcmitype/StillImage"/>
    <dc:title>view-refresh</dc:title>
   </cc:Work>
  </rdf:RDF>
 </metadata>
 <!-- Generator: Sketch 51.3 (57544) - http://www.bohemiancoding.com/sketch -->
 <title>view-refresh</title>
 <desc>Created with Sketch.</desc>
 <g id="view-refresh" fill="#b00000" fill-rule="evenodd">
  <g transform="translate(5 5)" fill="#b00000">
   <path id="Combined-Shape" d="m12.489 4h-0.29129c-1.0374-1.7934-2.9765-3-5.1973-3-3.3137 0-6 2.6863-6 6s2.6863 6 6 6c2.6124 0 4.8349-1.6696 5.6586-4h1.0515c-0.86055 2.8915-3.5391 5-6.7101 5-3.866 0-7-3.134-7-7 0-3.866 3.134-7 7-7 1.9757 0 3.7602 0.81848 5.0329 2.1349l0.45566 1.8651z"/>
   <polygon id="Triangle" transform="translate(12.75 3.75) rotate(135) translate(-12.75 -3.75)" points="12.75 1.9822 16.286 5.5178 9.2145 5.5178"/>
  </g>
 </g>
</svg>
